svgs/nubank.svg

<svg width="192" height="192" viewBox="0 0 192 192" fill="none" xmlns="http://www.w3.org/2000/svg"><path d="M22.09 88.167c-.199 3.71 0 7.504 0 11.19v35.714h19.543v-32.724c0-10.185-.072-19.261 0-21.123.34-8.835 2.704-14.587 7.108-19.305a23.315 23.315 0 0 0-1.02-.022 25.38 25.38 0 0 0-13.337 3.878 26.24 26.24 0 0 0-9.463 10.383c-1.908 3.787-2.599 7.863-2.83 12.01Z" stroke="#000" stroke-width="12" stroke-linejoin="round"/><path d="M66.894 54a24.091 24.091 0 0 0-9.915 2.015 24.613 24.613 0 0 0-8.289 5.93c14.56 0 23.984 10.162 24.512 26.334.12 3.709.16 23.578.16 23.578v23.214h19.542v-31.374c0-9.484.076-17.696-.568-23.367C90.526 64.545 81.102 54 66.894 54Zm103.019 48.833c.199-3.71 0-7.504 0-11.19V55.925H150.37v32.72c0 10.186.073 19.262 0 21.142-.343 8.827-2.707 14.595-7.111 19.313.338.015.678.022 1.021.022a25.39 25.39 0 0 0 13.335-3.877 26.245 26.245 0 0 0 9.464-10.38c1.911-3.809 2.613-7.886 2.834-12.032Z" stroke="#000" stroke-width="12" stroke-linejoin="round"/><path d="M125.102 137a24.085 24.085 0 0 0 9.916-2.015 24.613 24.613 0 0 0 8.288-5.93c-14.559 0-23.983-10.159-24.512-26.334-.119-3.709-.17-12.925-.17-23.596V55.903l-19.542.022v31.378c0 9.484-.076 17.699.568 23.367 1.827 15.785 11.25 26.33 25.452 26.33Z" stroke="#000" stroke-width="12" stroke-linejoin="round"/></svg>

<?xml version="1.0" encoding="UTF-8" standalone="no"?><svg xmlns:android="http://schemas.android.com/apk/res/android" height="192" width="192" xmlns="http://www.w3.org/2000/svg">
  <path d="M22.09,88.167C21.891,91.876 22.09,95.671 22.09,99.357V135.071H41.633C41.633,135.071 41.633,117.476 41.633,102.347C41.633,92.162 41.561,83.086 41.633,81.224C41.973,72.389 44.337,66.637 48.741,61.919C48.403,61.904 48.063,61.896 47.72,61.896C43.013,61.92 38.402,63.261 34.384,65.775C30.366,68.288 27.094,71.878 24.921,76.158C23.013,79.945 22.322,84.021 22.09,88.167Z" fill="#000000" fill-opacity="0.0" stroke="#000000" stroke-linejoin="round" stroke-width="12"/>
  <path d="M66.894,54C63.488,53.961 60.112,54.647 56.979,56.015C53.845,57.382 51.023,59.402 48.69,61.945C63.25,61.945 72.674,72.107 73.202,88.279C73.321,91.988 73.361,111.857 73.361,111.857V135.071H92.904V103.697C92.904,94.213 92.98,86.001 92.336,80.33C90.526,64.545 81.102,54 66.894,54Z" fill="#000000" fill-opacity="0.0" stroke="#000000" stroke-linejoin="round" stroke-width="12"/>
  <path d="M169.913,102.833C170.112,99.124 169.913,95.329 169.913,91.643V55.925H150.37C150.37,55.925 150.37,73.521 150.37,88.646C150.37,98.831 150.443,107.907 150.37,109.787C150.027,118.614 147.663,124.382 143.259,129.1C143.597,129.115 143.937,129.122 144.28,129.122C148.986,129.098 153.597,127.757 157.615,125.245C161.633,122.732 164.906,119.143 167.079,114.865C168.99,111.056 169.692,106.979 169.913,102.833Z" fill="#000000" fill-opacity="0.0" stroke="#000000" stroke-linejoin="round" stroke-width="12"/>
  <path d="M125.102,137C128.508,137.039 131.884,136.353 135.018,134.985C138.151,133.618 140.973,131.598 143.306,129.055C128.747,129.055 119.323,118.896 118.794,102.721C118.675,99.012 118.624,89.796 118.624,79.125V55.903L99.082,55.925V87.303C99.082,96.787 99.006,105.002 99.65,110.67C101.477,126.455 110.901,137 125.102,137Z" fill="#000000" fill-opacity="0.0" stroke="#000000" stroke-linejoin="round" stroke-width="12"/>
</svg>
